public/assets/images/main_empty_heart.svg

<svg width="18" height="16" viewBox="0 0 18 16" fill="none" xmlns="http://www.w3.org/2000/svg">
<path d="M12.75 0.5C11.3 0.5 9.90835 1.175 9.00002 2.24167C8.09169 1.175 6.70002 0.5 5.25002 0.5C2.68335 0.5 0.666687 2.51667 0.666687 5.08333C0.666687 8.23333 3.50002 10.8 7.79169 14.7L9.00002 15.7917L10.2084 14.6917C14.5 10.8 17.3334 8.23333 17.3334 5.08333C17.3334 2.51667 15.3167 0.5 12.75 0.5ZM9.08335 13.4583L9.00002 13.5417L8.91669 13.4583C4.95002 9.86667 2.33335 7.49167 2.33335 5.08333C2.33335 3.41667 3.58335 2.16667 5.25002 2.16667C6.53335 2.16667 7.78335 2.99167 8.22502 4.13333H9.78335C10.2167 2.99167 11.4667 2.16667 12.75 2.16667C14.4167 2.16667 15.6667 3.41667 15.6667 5.08333C15.6667 7.49167 13.05 9.86667 9.08335 13.4583Z" fill="#323232"/>
</svg>

<svg width="18" height="16" fill="none" xmlns="http://www.w3.org/2000/svg"><path d="M12.75.5A4.99 4.99 0 0 0 9 2.242 4.99 4.99 0 0 0 5.25.5C2.683.5.667 2.517.667 5.083c0 3.15 2.833 5.717 7.125 9.617L9 15.792l1.208-1.1c4.292-3.892 7.125-6.459 7.125-9.609C17.333 2.517 15.317.5 12.75.5ZM9.083 13.458 9 13.542l-.083-.084C4.95 9.867 2.333 7.492 2.333 5.083c0-1.666 1.25-2.916 2.917-2.916 1.283 0 2.533.825 2.975 1.966h1.558c.434-1.141 1.684-1.966 2.967-1.966 1.667 0 2.917 1.25 2.917 2.916 0 2.409-2.617 4.784-6.584 8.375Z" fill="#323232"/></svg>
